X:20
T:Polka de Montserat
R:polka
T:Urbain Trincal polkas I
M:2/4
L:1/8
G:G instrument - pipes
P:G pipes: 3x
K:C
e>f ge | fa g2 | d>e fg/f/ | ed/f/ e/d/c/d/ | \
e>f ge | fa g2 | d>e fg/f/ | ed c2 ||
Ge dc | B/c/A/B/ G2 | e/d/e/f/ ed | d/c/d/e/ dc | \
Ge dc | B/c/A/B/ G2 | e/d/e/f/ ed | AB c2 |] 

